nextApp/public/icons/link-tg.svg

<svg width="41" height="41" viewBox="0 0 41 41" fill="none" xmlns="http://www.w3.org/2000/svg">
<g clip-path="url(#clip0_312_316)">
<path d="M27.6997 12.8997L11.3997 19.1997C10.2997 19.5997 10.2997 20.2997 11.1997 20.4997L15.2997 21.7997L16.8997 26.5997C17.0997 27.0997 16.9997 27.2997 17.4997 27.2997C17.8997 27.2997 18.0997 27.0997 18.2997 26.8997C18.3997 26.7997 19.2997 25.8997 20.2997 24.8997L24.4997 27.9997C25.2997 28.3997 25.7997 28.1997 25.9997 27.2997L28.7997 14.1997C29.0997 13.0997 28.3997 12.4997 27.6997 12.8997ZM25.5997 15.8997L17.7997 22.9997L17.4997 26.2997L15.8997 21.4997L25.0997 15.6997C25.4997 15.3997 25.8997 15.5997 25.5997 15.8997Z" fill="white"/>
</g>
<circle cx="20.5" cy="20.5" r="20" stroke="white"/>
<defs>
<clipPath id="clip0_312_316">
<rect width="24" height="24" fill="white" transform="translate(8.5 8.5)"/>
</clipPath>
</defs>
</svg>

<svg xmlns="http://www.w3.org/2000/svg" width="41" height="41" fill="none" viewBox="0 0 41 41"><g clip-path="url(#a)"><path fill="#fff" d="m27.7 12.9-16.3 6.3c-1.1.4-1.1 1.1-.2 1.3l4.1 1.3 1.6 4.8c.2.5.1.7.6.7.4 0 .6-.2.8-.4l2-2 4.2 3.1c.8.4 1.3.2 1.5-.7l2.8-13.1c.3-1.1-.4-1.7-1.1-1.3m-2.1 3L17.8 23l-.3 3.3-1.6-4.8 9.2-5.8c.4-.3.8-.1.5.2"/></g><circle cx="20.5" cy="20.5" r="20" stroke="#fff"/><defs><clipPath id="a"><path fill="#fff" d="M8.5 8.5h24v24h-24z"/></clipPath></defs></svg>
